X: 31
T:Admisal Lord Nelson's Hornpipe. WCa.31
M:C|
Q:160
S:Wm. Calvert MS, 1812, Leyburn, Yorks.
R:hornpipe
O:England
A:North Yorkshire
Z:vmp.Chris Partington, May 2003
K:G
Bc|dBecB2cA|GFAFG2Bc|dBgf edcB|ABcA GFED|!
dBecB2cA|GFAFG2ec|B2cA G2F2|G2G2G2::!
Bc|dgfg edcB|((3efg) ((3fga) g2f2|edcB cBAG|F2A2A2GF|!
EFGE FGAF|Bdceg2ec|B2cAG2F2|G2G2G2:||
